_site/assets/img/sponsors/synaptic-logo.svg

<?xml version="1.0" encoding="UTF-8" standalone="no"?>
<svg width="233px" height="121px" viewBox="0 0 233 121" version="1.1" xmlns="http://www.w3.org/2000/svg" xmlns:xlink="http://www.w3.org/1999/xlink">
    <!-- Generator: Sketch 41.2 (35397) - http://www.bohemiancoding.com/sketch -->
    <title>Group 13</title>
    <desc>Created with Sketch.</desc>
    <defs>
        <linearGradient x1="50%" y1="0%" x2="50%" y2="100%" id="linearGradient-1">
            <stop stop-color="#00A169" offset="0%"></stop>
            <stop stop-color="#006838" offset="100%"></stop>
        </linearGradient>
    </defs>
    <g id="Page-1" stroke="none" stroke-width="1" fill="none" fill-rule="evenodd">
        <g id="Artboard-2" transform="translate(-119.000000, -776.000000)">
            <g id="Group-13" transform="translate(119.000000, 776.000000)">
                <rect id="Rectangle-3" fill="#FFFFFF" x="1.42108547e-14" y="0" width="233" height="121"></rect>
                <g id="Group" transform="translate(23.000000, 33.000000)" fill="url(#linearGradient-1)">
                    <path d="M43.4485333,21.3678514 C43.4485333,21.3678514 43.2569305,23.8086757 48.1019234,25.7128108 C48.1019234,25.7128108 53.522973,28.2019054 54.0022922,31.0333378 C54.0022922,31.0333378 55.6331007,37.9169324 49.4443915,39.9671486 C49.4443915,39.9671486 45.3676823,40.6505541 42.0099518,39.8210676 C42.0099518,39.8210676 38.5554837,38.8931351 38.6996539,33.8158649 C38.6996539,33.8158649 38.8438241,31.9123649 39.1315404,31.2778649 C39.1315404,31.2778649 39.2757106,30.7405405 39.8992,30.7405405 L41.9138383,30.7405405 C41.9138383,30.7405405 42.5791433,30.7589595 42.4418383,31.6195676 C42.4418383,31.6195676 41.9138383,35.475473 42.9692142,36.1106081 C42.9692142,36.1106081 44.0245901,37.6241351 48.5338099,36.7940135 C48.5338099,36.7940135 50.6919943,36.3055946 50.7881078,33.5230676 C50.7881078,33.5230676 51.1719376,31.1311486 48.1974128,29.8621486 C48.1974128,29.8621486 43.5446468,27.363527 42.6665191,26.7582432 C42.6665191,26.7582432 37.836505,24.0036622 41.3384057,17.2178784 C41.3384057,17.2178784 42.7052142,13.996473 48.0058099,14.1552568 C48.0058099,14.1552568 53.4742922,13.9355 54.4822355,18.048 C54.4822355,18.048 54.8660652,20.5872703 54.6251574,22.0023514 C54.6251574,22.0023514 54.5365333,23.2618243 53.6184624,23.2713514 L51.795427,23.2713514 C51.795427,23.2713514 50.8792284,23.2421351 51.1719376,21.6606486 C51.1719376,21.6606486 52.0837674,17.9501892 49.0131291,17.4135 C49.0131291,17.4135 45.5836255,16.7427973 44.3603631,18.4506757 C44.3603631,18.4506757 43.4011007,19.5608919 43.4485333,21.3678514" id="Fill-1"></path>
                    <path d="M59.0379518,15.9326189 C59.0379518,15.9326189 59.0791433,14.4254432 60.1289021,14.4864162 L62.3351433,14.4864162 C62.3351433,14.4864162 62.9105759,14.5105514 62.7913702,15.4137135 L61.2073702,33.6382811 C61.2073702,33.6382811 60.6313135,36.8844568 63.9409872,36.909227 L69.0019234,36.909227 L70.8012426,15.6557 C70.8012426,15.6557 70.7525617,14.4845108 71.7367887,14.4845108 L74.0385191,14.4845108 C74.0385191,14.4845108 74.5428028,14.5334162 74.4460652,15.4848486 L72.5275404,38.8622676 C72.5275404,38.8622676 72.4501504,40.1160243 71.8079376,41.6930649 L70.033583,45.7934973 C70.033583,45.7934973 69.6734695,46.6972946 68.5226043,46.2330108 L66.8431149,45.4276595 C66.8431149,45.4276595 66.2296113,45.1589973 66.8431149,44.1827946 L68.4264908,40.9607541 C68.4264908,40.9607541 68.8103206,40.1795378 68.2105475,40.1795378 C68.2105475,40.1795378 62.916817,40.2379703 61.7821787,40.1554027 C61.7821787,40.1554027 57.0339234,39.569173 57.4408454,34.7122946 L59.0379518,15.9326189 Z" id="Fill-3"></path>
                    <path d="M79.1034496,16.6446689 C79.1034496,16.6446689 79.2182865,14.4693311 80.7585986,14.4725068 L89.7770383,14.4725068 C89.7770383,14.4725068 94.9184851,14.1142905 94.1901447,20.917223 L92.6604426,38.4755338 C92.6604426,38.4755338 92.7241021,40.0049392 91.6368965,40.1675338 L89.5585986,40.1675338 C89.5585986,40.1675338 88.6948255,40.1999257 88.9188823,38.6381284 L90.4804142,20.7374797 C90.4804142,20.7374797 90.7444142,17.7491689 88.4982298,17.7428176 L82.7414071,17.7428176 L80.8278752,39.25675 C80.8278752,39.25675 80.667478,40.1675338 79.9322723,40.1675338 L77.7896908,40.1675338 C77.7896908,40.1675338 76.9895773,40.3631554 77.1181447,38.7683311 L79.1034496,16.6446689 Z" id="Fill-6"></path>
                    <path d="M108.307591,36.1589419 C108.307591,36.1589419 108.307591,36.8093203 107.859478,36.8093203 L102.839109,36.8093203 C102.839109,36.8093203 100.344528,36.54955 100.504925,33.8159284 L101.65579,20.7975635 C101.65579,20.7975635 101.71945,17.8695905 104.949237,17.8695905 L109.875365,17.8689554 L108.307591,36.1589419 Z M112.561549,14.4843203 L103.830201,14.4843203 C98.3617191,14.8101446 98.0427972,19.6587662 98.0427972,19.6587662 C97.9148539,20.0169824 96.8588539,35.5409554 96.8588539,35.5409554 C96.8588539,39.7391986 101.399904,40.1945905 101.399904,40.1945905 L110.035138,40.1945905 C111.793889,40.1298068 111.793889,38.7947527 111.793889,38.7947527 L113.712414,15.9489419 C113.872187,14.5173473 112.561549,14.4843203 112.561549,14.4843203 L112.561549,14.4843203 Z" id="Fill-8"></path>
                    <path d="M129.647467,20.4752959 L128.447921,34.0379716 C128.447921,34.0379716 128.39924,36.6744176 125.761112,36.8211338 L120.293254,36.8211338 L121.87663,17.7899446 L127.439977,17.7899446 C127.439977,17.7899446 129.83907,17.8877554 129.647467,20.4752959 M128.447921,14.4707284 L120.340687,14.4707284 C118.325424,14.421823 118.277991,16.2776878 118.277991,16.2776878 L115.975637,45.16935 C115.772176,46.3037014 116.538587,46.3405392 116.538587,46.3405392 L118.758559,46.3405392 C119.573651,46.3405392 119.52497,45.1198095 119.52497,45.1198095 L119.861367,40.7272149 C119.9088,40.1892554 120.340687,40.1803635 120.340687,40.1803635 L126.596176,40.1803635 C131.729509,39.7897554 132.093991,33.6969041 132.093991,33.6969041 L133.34097,19.9379716 C133.532573,14.66635 128.447921,14.4707284 128.447921,14.4707284" id="Fill-10"></path>
                    <path d="M138.11263,9.17312973 C138.11263,9.17312973 138.108885,8.37095405 138.732999,8.37095405 L141.444148,8.37095405 C141.444148,8.37095405 141.902247,8.36904865 141.85107,9.17312973 L141.405452,14.4841297 L146.799665,14.4841297 C146.799665,14.4841297 147.606644,14.5387514 147.599155,15.4120622 L147.504289,17.0881838 C147.504289,17.0881838 147.408176,17.7715892 146.448913,17.8039811 L141.58707,17.8039811 C141.58707,17.8039811 141.031609,17.8077919 140.979183,18.3578189 L139.828318,33.6207514 C139.828318,33.6207514 139.52375,36.6795622 141.571467,36.6795622 L144.88863,36.7113189 C144.88863,36.7113189 145.751155,36.6141432 145.656289,37.6881568 L145.496516,39.3801568 C145.496516,39.3801568 145.432233,40.161373 144.248289,40.1944 L140.635296,40.1944 C140.635296,40.1944 135.505708,40.1944 136.061793,35.0841027 L138.11263,9.17312973 Z" id="Fill-12"></path>
                    <path d="M155.515909,14.5141081 L153.260987,14.5141081 C152.301725,14.5306216 152.189384,15.5557297 152.189384,15.5557297 L150.254633,39.1376622 C150.126689,40.2599459 150.878746,40.1780135 150.878746,40.1780135 L152.877782,40.1780135 C153.885101,40.1297432 153.948136,39.0563649 153.948136,39.0563649 L156.012079,15.7507162 C156.203682,14.5141081 155.515909,14.5141081 155.515909,14.5141081" id="Fill-16"></path>
                    <path d="M165.940539,14.4843203 L171.297305,14.4843203 C171.297305,14.4843203 175.423319,14.4601851 175.807773,18.1941446 C175.906383,19.1576446 175.807773,20.4069554 175.711035,22.0024149 C175.711035,22.0024149 175.711035,23.2225095 174.990809,23.2225095 L172.928113,23.2225095 C172.928113,23.2225095 172.017532,23.4174959 172.113021,21.8067932 L172.209135,19.5609554 C172.209135,19.5609554 172.464397,17.6333203 169.874326,17.6568203 L167.019631,17.6568203 C167.019631,17.6568203 164.837106,17.6333203 164.30973,20.3428068 L163.066496,34.1258743 C163.066496,34.1258743 162.61027,36.6156041 165.344511,36.7369149 L168.822071,36.7369149 C168.822071,36.7369149 171.101957,36.8842662 171.340369,32.075023 C171.340369,32.075023 171.268596,30.6116716 172.324596,30.5862662 L174.220028,30.5862662 C174.220028,30.5862662 175.322837,30.4154149 175.13061,32.0997932 C175.13061,32.0997932 174.923404,34.256077 174.411007,36.2091176 C173.840567,38.3869959 172.057475,40.1793473 169.038014,40.1793473 L163.762383,40.1793473 C163.762383,40.1793473 158.964199,40.0815365 159.204482,34.589523 L160.447716,20.6356041 C160.447716,20.6356041 160.807206,14.6799419 165.940539,14.4843203" id="Fill-18"></path>
                    <path d="M24.9429749,46.2250731 C29.110739,45.2015599 32.2085492,41.3724496 32.2085492,36.8053361 C32.2085492,34.1932163 31.1963291,31.8230305 29.5497207,30.0806877 L29.5497207,30.0792932 L16.1660737,16.3894568 L7.61942432,6.27912741 C4.14446561,1.87725412 5.10202649,0.349653831 5.10202649,0.349653831 C5.09724381,0.355580167 5.10680917,0.344076102 5.10202649,0.350002439 C2.235493,1.40175279 0.18611458,4.20002926 0.18611458,7.48705416 C0.18611458,9.27192715 0.790781993,10.9131736 1.80231884,12.2082524 L1.80368532,12.2092982 L16.1653904,26.8703565 L24.390917,36.8405455 C24.390917,36.8405455 27.8231732,40.7770271 24.9429749,46.2250731 L24.9429749,46.2250731 Z M25.6880481,45.3525072 C25.6880481,45.3525072 27.9512807,40.7191582 24.8808001,36.8405455 L16.6477579,27.362591 L25.9005358,36.8077764 C27.2253382,38.8596831 27.0989388,40.9171675 27.0989388,40.9171675 C27.0989388,42.8383463 26.4290219,44.3150498 25.6880481,45.3525072 L25.6880481,45.3525072 Z M15.6936132,15.9076806 L5.44774594,5.48395255 L5.44432973,5.48674141 C4.87109136,4.71248303 4.52776325,3.72487655 4.52776325,2.64907224 C4.52776325,2.06898852 4.6275163,1.5150504 4.80959976,1.0057341 C4.82838886,1.88422628 5.28240185,3.5965888 7.49131682,6.39486527 L15.6936132,15.9076806 Z" id="Fill-21"></path>
                </g>
            </g>
        </g>
    </g>
</svg>

<svg width="233" height="121" xmlns="http://www.w3.org/2000/svg"><title>Group 13</title><defs><linearGradient x1="50%" y1="0%" x2="50%" y2="100%" id="a"><stop stop-color="#00A169" offset="0%"/><stop stop-color="#006838" offset="100%"/></linearGradient></defs><g fill="none" fill-rule="evenodd"><path fill="#FFF" d="M0 0h233v121H0z"/><path d="M43.449 21.368s-.192 2.44 4.653 4.345c0 0 5.421 2.489 5.9 5.32 0 0 1.631 6.884-4.558 8.934 0 0-4.076.684-7.434-.146 0 0-3.455-.928-3.31-6.005 0 0 .144-1.904.432-2.538 0 0 .144-.537.767-.537h2.015s.665.018.528.879c0 0-.528 3.855.527 4.49 0 0 1.056 1.514 5.565.684 0 0 2.158-.488 2.254-3.27 0 0 .384-2.393-2.59-3.662 0 0-4.653-2.498-5.531-3.104 0 0-4.83-2.754-1.329-9.54 0 0 1.367-3.222 6.668-3.063 0 0 5.468-.22 6.476 3.893 0 0 .384 2.54.143 3.954 0 0-.088 1.26-1.007 1.27h-1.823s-.916-.03-.623-1.611c0 0 .912-3.71-2.159-4.248 0 0-3.43-.67-4.653 1.038 0 0-.959 1.11-.911 2.917m15.589-5.435s.041-1.508 1.09-1.447h2.207s.576.025.456.928l-1.584 18.224s-.576 3.246 2.734 3.271h5.06l1.8-21.253s-.048-1.171.936-1.171h2.302s.504.048.407 1l-1.918 23.377s-.078 1.254-.72 2.831l-1.774 4.1s-.36.904-1.511.44l-1.68-.805s-.613-.269 0-1.245l1.583-3.222s.384-.781-.215-.781c0 0-5.294.058-6.429-.025 0 0-4.748-.586-4.341-5.443l1.597-18.78zm20.065.712s.115-2.176 1.656-2.172h9.018s5.141-.359 4.413 6.444l-1.53 17.559s.064 1.529-1.023 1.692h-2.078s-.864.032-.64-1.53l1.561-17.9s.264-2.989-1.982-2.995h-5.757l-1.913 21.514s-.16.91-.896.91H77.79s-.8.196-.672-1.399l1.985-22.123zm29.205 19.514s0 .65-.449.65h-5.02s-2.494-.26-2.334-2.993l1.15-13.018s.064-2.928 3.294-2.928l4.926-.001-1.567 18.29zm4.254-21.675h-8.732c-5.468.326-5.787 5.175-5.787 5.175-.128.358-1.184 15.882-1.184 15.882 0 4.198 4.54 4.654 4.54 4.654h8.636c1.759-.065 1.759-1.4 1.759-1.4l1.918-22.846c.16-1.432-1.15-1.465-1.15-1.465zm17.085 5.991l-1.2 13.563s-.048 2.636-2.686 2.783h-5.468l1.584-19.031h5.563s2.4.098 2.207 2.685m-1.2-6.004h-8.106c-2.016-.05-2.063 1.807-2.063 1.807l-2.302 28.891c-.204 1.135.563 1.172.563 1.172h2.22c.815 0 .766-1.221.766-1.221l.336-4.393c.048-.538.48-.547.48-.547h6.255c5.134-.39 5.498-6.483 5.498-6.483l1.247-13.759c.192-5.272-4.893-5.467-4.893-5.467m9.665-5.298s-.004-.802.62-.802h2.711s.458-.002.407.802l-.446 5.311h5.395s.807.055.8.928l-.096 1.676s-.096.684-1.055.716h-4.862s-.555.004-.608.554l-1.15 15.263s-.305 3.059 1.742 3.059l3.318.031s.862-.097.767.977l-.16 1.692s-.064.781-1.248.814h-3.613s-5.13 0-4.573-5.11l2.05-25.91zm17.403 5.341h-2.255c-.96.017-1.072 1.042-1.072 1.042l-1.934 23.582c-.128 1.122.624 1.04.624 1.04h1.999c1.007-.048 1.07-1.122 1.07-1.122l2.064-23.305c.192-1.237-.496-1.237-.496-1.237m10.424-.03h5.357s4.126-.024 4.51 3.71c.1.964 0 2.213-.096 3.808 0 0 0 1.22-.72 1.22h-2.063s-.91.195-.815-1.415l.096-2.246s.255-1.928-2.335-1.904h-2.854s-2.183-.024-2.71 2.686l-1.244 13.783s-.456 2.49 2.279 2.61h3.477s2.28.148 2.518-4.661c0 0-.071-1.463.985-1.489h1.895s1.103-.17.91 1.514c0 0-.207 2.156-.719 4.11-.57 2.177-2.354 3.97-5.373 3.97h-5.276s-4.798-.098-4.558-5.59l1.244-13.954s.36-5.956 5.493-6.152M24.943 46.225c4.168-1.023 7.266-4.853 7.266-9.42a9.76 9.76 0 0 0-2.66-6.724v-.002L16.167 16.39 7.62 6.28C4.144 1.877 5.102.35 5.102.35c-.005.007.005-.005 0 .001C2.235 1.402.186 4.2.186 7.487c0 1.785.605 3.426 1.616 4.721l.002.001L16.165 26.87l8.226 9.97s3.432 3.937.552 9.385zm.745-.872s2.263-4.634-.807-8.512l-8.233-9.478 9.253 9.445c1.324 2.052 1.198 4.11 1.198 4.11a7.53 7.53 0 0 1-1.411 4.435zm-9.994-29.445L5.448 5.484l-.004.003a4.761 4.761 0 0 1-.916-2.838c0-.58.1-1.134.282-1.643.018.878.472 2.59 2.681 5.389l8.203 9.513z" transform="translate(23 33)" fill="url(#a)"/></g></svg>
